src/actions/24/format-border-set-diagonal-tl-br.svg

<svg xmlns="http://www.w3.org/2000/svg" viewBox="0 0 24 24">
  <defs id="defs3051">
    <style type="text/css" id="current-color-scheme">
      .ColorScheme-Text {
        color:#2e3440;
      }
      </style>
  </defs>
 <path 
     style="fill:currentColor;fill-opacity:0.1;stroke:none" 
     d="M 4.7070312 3 L 5.7070312 4 L 12 4 L 12 10.292969 L 13.707031 12 L 20 12 L 20 18.292969 L 21 19.292969 L 21 19 L 21 12 L 21 11 L 21 4 L 21 3 L 20 3 L 13 3 L 12 3 L 5 3 L 4.7070312 3 z M 4 3.7070312 L 4 4 L 4 11 L 4 12 L 4 19 L 4 20 L 5 20 L 12 20 L 13 20 L 20 20 L 20.292969 20 L 19.292969 19 L 13 19 L 13 12.707031 L 11.292969 11 L 5 11 L 5 4.7070312 L 4 3.7070312 z M 13 4 L 20 4 L 20 11 L 13 11 L 13 4 z M 5 12 L 12 12 L 12 19 L 5 19 L 5 12 z "
     class="ColorScheme-Text"
     />
 <path 
     style="fill:currentColor;fill-opacity:0.5;stroke:none" 
     d="M 5.7070312 4 L 12 10.292969 L 12 4 L 5.7070312 4 z M 13 4 L 13 11 L 20 11 L 20 4 L 13 4 z M 5 4.7070312 L 5 11 L 11.292969 11 L 5 4.7070312 z M 5 12 L 5 19 L 12 19 L 12 12 L 5 12 z M 13.707031 12 L 20 18.292969 L 20 12 L 13.707031 12 z M 13 12.707031 L 13 19 L 19.292969 19 L 13 12.707031 z "
     class="ColorScheme-Text"
     />
 <path 
     style="fill:currentColor;fill-opacity:1.0;stroke:none" 
     d="M 4 3 L 4 3.7070312 L 20.292969 20 L 21 20 L 21 19.292969 L 4.7070312 3 L 4 3 z "
     class="ColorScheme-Text"
     />
</svg>

<svg viewBox="0 0 24 24" xmlns="http://www.w3.org/2000/svg">
 <defs>
  <style type="text/css">.ColorScheme-Text {
        color:#2e3440;
      }</style>
 </defs>
 <path class="ColorScheme-Text" d="m4.707 3 1 1h6.293v6.293l1.707 1.707h6.293v6.293l1 1v-0.29297-7-1-7-1h-1-7-1-7-0.29297zm-0.70703 0.70703v0.29297 7 1 7 1h1 7 1 7 0.29297l-1-1h-6.293v-6.293l-1.707-1.707h-6.293v-6.293l-1-1zm9 0.29297h7v7h-7v-7zm-8 8h7v7h-7v-7z" fill="currentColor" fill-opacity=".1"/>
 <path class="ColorScheme-Text" d="m5.707 4 6.293 6.293v-6.293h-6.293zm7.293 0v7h7v-7h-7zm-8 0.70703v6.293h6.293l-6.293-6.293zm0 7.293v7h7v-7h-7zm8.707 0 6.293 6.293v-6.293h-6.293zm-0.70703 0.70703v6.293h6.293l-6.293-6.293z" fill="currentColor" fill-opacity=".5"/>
 <path class="ColorScheme-Text" d="m4 3v0.70703l16.293 16.293h0.70703v-0.70703l-16.293-16.293h-0.70703z" fill="currentColor"/>
</svg>
